icons/1_Primary/Grammarly.svg

<svg width="1024" height="1024" fill="none" xmlns="http://www.w3.org/2000/svg"><g clip-path="url(#a)"><path d="M512 1024c282.77 0 512-229.23 512-512S794.77 0 512 0 0 229.23 0 512s229.23 512 512 512Z" fill="#96DFD3"/><path d="M512 256c-141.38 0-256 114.61-256 256s114.62 256 256 256 256-114.62 256-256-114.61-256-256-256Zm144.37 389.49a17.358 17.358 0 0 1-6.271 13.362 17.345 17.345 0 0 1-14.289 3.698c-8.37-1.51-14.1-9.41-14.1-17.91v-16.5l3.29-18.25a148.63 148.63 0 0 1-113 51.49c-85.9 0-155-71.16-150-158.31 4.3-74.9 64.82-136.15 139.6-141.17a149.993 149.993 0 0 1 136.93 69 17.161 17.161 0 0 1-5.16 22.78c-7.87 5.47-18.23 3.06-24.15-5.29-20.53-28.93-56.38-52.86-97.24-52.86-78.4 0-138.57 78.74-107 161.2 13.92 36.33 46.91 62.34 85.32 68.37 47.18 7.41 90.34-9.38 115.19-45.88l-15.53 2.18h-26.8c-8.51 0-16.38-5.74-17.89-14.12a17.346 17.346 0 0 1 9.633-18.916 17.347 17.347 0 0 1 7.367-1.664h94.09l.01 98.79Z" fill="#fff"/></g><defs><clipPath id="a"><path fill="#fff" d="M0 0h1024v1024H0z"/></clipPath></defs></svg>

<svg width="1024" height="1024" viewBox="0 0 1024 1024" fill="none" xmlns="http://www.w3.org/2000/svg">
<g clip-path="url(#clip0_2_2328)">
<path d="M512 1024C794.77 1024 1024 794.77 1024 512C1024 229.23 794.77 0 512 0C229.23 0 0 229.23 0 512C0 794.77 229.23 1024 512 1024Z" fill="#96DFD3"/>
<path d="M512 256C370.62 256 256 370.61 256 512C256 653.39 370.62 768 512 768C653.38 768 768 653.38 768 512C768 370.62 653.39 256 512 256ZM656.37 645.49C656.371 648.041 655.81 650.561 654.726 652.871C653.642 655.18 652.062 657.222 650.099 658.852C648.136 660.481 645.837 661.657 643.367 662.296C640.898 662.935 638.317 663.022 635.81 662.55C627.44 661.04 621.71 653.14 621.71 644.64V628.14L625 609.89C610.992 626.113 593.64 639.115 574.135 648.003C554.631 656.89 533.434 661.454 512 661.38C426.1 661.38 357 590.22 362 503.07C366.3 428.17 426.82 366.92 501.6 361.9C528.52 360.02 555.449 365.438 579.548 377.582C603.647 389.725 624.023 408.145 638.53 430.9C640.704 434.647 641.381 439.078 640.424 443.303C639.467 447.529 636.947 451.236 633.37 453.68C625.5 459.15 615.14 456.74 609.22 448.39C588.69 419.46 552.84 395.53 511.98 395.53C433.58 395.53 373.41 474.27 404.98 556.73C418.9 593.06 451.89 619.07 490.3 625.1C537.48 632.51 580.64 615.72 605.49 579.22L589.96 581.4H563.16C554.65 581.4 546.78 575.66 545.27 567.28C544.796 564.776 544.878 562.199 545.513 559.731C546.147 557.263 547.317 554.965 548.94 553C550.563 551.036 552.599 549.453 554.903 548.364C557.206 547.275 559.722 546.707 562.27 546.7H656.36L656.37 645.49Z" fill="white"/>
</g>
<defs>
<clipPath id="clip0_2_2328">
<rect width="1024" height="1024" fill="white"/>
</clipPath>
</defs>
</svg>
